X:1
T:Callipygian Jig
M:6/8
L:1/8
C: Paul Gitlitz 2007
R:Jig
K:D
e|"D"~f3a2e|~f3d2A|"Bm"B2B Bcd|"D"A3-A2e|!
"D"~f3a2e|~f3d2A|"E"e2e ef^g|"A7"a3-a2e|!
"D"~f3a2e|~f3d2A|"Bm"B2B Bcd|"D"A3-A2A|!
"Bm"BAB "A7/C#"cBc|"D"dcd "A"a2f|"E7"e2e "A7"afe|"D"d3-d2A||!
K:Bb
|"Bb"~B3dcB|"F"~A3cBA|"Bb"~B3dcB|"F"AF=EF2A|!
"Bb"BFB dcB|"F"AFA cBA|"Bb"BAB "F"cBc|"Bb"dBA B2F|!
"Bb"~B3dcB|"F"~A3cBA|"Bb"~B3dcB|"F"AF=EF2D|!
"Eb"EFG "F"FGA|"Bb"Bcd "F"cde|"Bb"fdB "Cm" ecA|"Bb"B3-B2|]
